X: 6
M: C|
L: 1/8
P: AB AB ad lib.
Q: 1/2=80 "springy"
K: G
V: 1
"A"|:\
gd eB cA BF | GE AG F2D2 |\
e2fg f4 |\
gfed ^cA dB | ^cded d4 :|\
"B"|:\
af df g2f2 | eg fe ^d4 |
eB cA BGAB | AGFE E4 |\
cB AG F2D2 | GA Bc d4 |\
V: 2
|:\
|:\
E2C2 D2A,2 | G,2G2 AG FA | GABG ED CB, | A,B, CB, B,4 :|
V: 3 clef=bass middle=d
|:\
"G"G4 GA BG | "C"c2 "Am"A2 "D"dedc | "G"B2G2- G2"D"d2 | "D"d2"A"^c2 "D"d=cBA |
"G"G4 GA BG | "C"c2"Am"A2 "D"dcBA | "G"G4 "A"A2"D"FD | "A"A4 "D"d4 :|
|:\
"D"d4 "G"B4 | "Am"c4 "B"BAGF | "Em"E6 "Am"A2 | "B"B4 "E"E4 |
"Am"A4 "D"de dc | "G"B2G2 "D"F2D2 | "G"G4 "C"c4 | "D"d4 "G"G4 :|


